X: 1297
T: Bonnie Kate
B: australian traditional tunes wiki
M:4/4
L:1/8
R: Reel
Q: 1/4=100
K:Dmaj
V:1 
B|:"D"AF Ad "A7"cB AG|"D"F2 (3DFD "A7"E2D2|"D"AF Ad "G"BG Bd|"A7"cA Bc "D"d3B|
"D"AF Ad "A7"cB AG|"D"F2(3DFD "A7"E2D2|"D"AF Ad "G"BG Bd|1"A7"cA Bc "D"d3B:|2"A7"cA Bc "D"de "A7"fg||
|:"D"a2fd fa fd|fa (3gbg "A7"e3f|ge (3egec2ag|"D"fg "A7"fe "D"de "A7"fg|
"D"a2fd fa fd|fa (3gbg "A7"e3f|ge (3egec2ag|"D"fa "A7"fe "D"d4:|
% abcbook-tune_id 6342d53a700064737ab283e9


% abcbook-boost 0
% abcbook-tablature 
% abcbook-transpose 
% abcbook-lastupdated 1665324357917
% abcbook-soundfonts 
% abcbook-repeats 1
% NFF Book 2022
% Bush Traditions recording played by Ray Mulligan

